public/confetti.svg

<svg width="587" height="88" viewBox="0 0 587 88" fill="none" xmlns="http://www.w3.org/2000/svg">
    <g clip-path="url(#clip0_14813_274432)">
        <path opacity="0.89" d="M288.611 41.7879L293.138 34.5439L281.064 26.9997L276.538 34.2437L288.611 41.7879Z" fill="#FB9175"/>
        <path opacity="0.6" d="M560.955 77.9999L570.65 58.9727L565.576 56.3874L555.881 75.4146L560.955 77.9999Z" fill="#FCC63A"/>
        <path opacity="0.97" d="M7.99054 5.03035C8.53767 8.9234 12.1372 11.6358 16.0302 11.0887C19.9233 10.5415 22.6357 6.94206 22.0885 3.049C21.5414 -0.844055 17.9419 -3.55646 14.0489 -3.00933C10.1558 -2.46219 7.44341 1.13729 7.99054 5.03035Z" fill="#FCC63A" fill-opacity="0.8"/>
        <path opacity="0.71" d="M84.1685 44.5582L92.3372 47.0557L96.4996 33.4412L88.3309 30.9438L84.1685 44.5582Z" fill="#95E257"/>
        <path opacity="0.89" d="M527.647 15.2808C524.582 14.5733 521.525 16.484 520.817 19.5485C520.11 22.6129 522.02 25.6707 525.085 26.3782C528.149 27.0857 531.207 25.175 531.915 22.1105C532.622 19.0461 530.711 15.9883 527.647 15.2808Z" fill="#BFCCFB"/>
        <path opacity="0.89" d="M113.111 10.2808C110.046 9.57335 106.988 11.484 106.281 14.5485C105.574 17.6129 107.484 20.6707 110.549 21.3782C113.613 22.0857 116.671 20.175 117.378 17.1105C118.086 14.0461 116.175 10.9883 113.111 10.2808Z" fill="#BFCCFB"/>
        <path opacity="0.83" d="M395.732 56.9919L416.97 59.2241L417.565 53.5607L396.328 51.3285L395.732 56.9919Z" fill="#95E257"/>
        <path opacity="0.86" d="M174.438 55.5562L166.966 46.9607L163.258 57.7294L174.438 55.5562Z" fill="#FB9175"/>
        <path opacity="0.92" d="M476.257 67.1307L476.486 54L465 60.3668L476.257 67.1307Z" fill="#FCC63A" fill-opacity="0.5"/>
        <path opacity="0.9" d="M228.327 26.255L239.704 27.4508L235.051 16.9998L228.327 26.255Z" fill="#BFCCFB"/>
        <path opacity="0.57" d="M149.706 34.7967L151.202 13.3989L145.496 12.9999L144 34.3977L149.706 34.7967Z" fill="#FCC63A"/>
        <path opacity="0.9" d="M410.838 12.0906C407.061 13.2451 404.936 17.2423 406.09 21.0186C407.245 24.7949 411.242 26.9203 415.018 25.7658C418.795 24.6112 420.92 20.614 419.766 16.8377C418.611 13.0614 414.614 10.9361 410.838 12.0906Z" fill="#FB9175"/>
        <path opacity="0.79" d="M50.4582 38.1636L43.606 33L35 44.4205L41.8523 49.5841L50.4582 38.1636Z" fill="#FCC63A"/>
        <path opacity="0.79" d="M458.815 -0.916008L450.752 -3.84766L445.866 9.5917L453.929 12.5233L458.815 -0.916008Z" fill="#FCC63A"/>
        <path opacity="0.69" d="M80.8046 74.8958L72.5876 55.082L67.304 57.2732L75.521 77.087L80.8046 74.8958Z" fill="#FB9175" fill-opacity="0.7"/>
        <path opacity="0.89" d="M544.329 51.0149L537.286 42.0001L533 52.6071L544.329 51.0149Z" fill="#95E257"/>
        <path opacity="0.89" d="M194.829 12.439L194.984 1.00005L185 6.58507L194.829 12.439Z" fill="#95E257"/>
        <path opacity="0.91" d="M327.195 7.00429L318.674 6L317 20.2017L325.521 21.206L327.195 7.00429Z" fill="#BFCCFB"/>
        <path opacity="0.93" d="M352.08 16.0832C348.695 18.117 347.6 22.5097 349.634 25.8945C351.668 29.2793 356.06 30.3745 359.445 28.3407C362.83 26.3069 363.925 21.9143 361.891 18.5295C359.857 15.1446 355.465 14.0494 352.08 16.0832Z" fill="#95E257"/>
        <path opacity="0.95" d="M591.274 28.9028L578.068 12L573.561 15.5216L586.767 32.4244L591.274 28.9028Z" fill="#BFCCFB"/>
        <path opacity="0.87" d="M333.857 53.629L327.382 48L318 58.7923L324.475 64.4213L333.857 53.629Z" fill="#95E257" fill-opacity="0.4"/>
        <path opacity="0.7" d="M478 23.3624L490.608 40.7158L495.235 37.3537L482.627 20.0003L478 23.3624Z" fill="#FB9175"/>
        <path opacity="0.7" d="M236.575 64.0054C237.76 61.9535 237.057 59.3298 235.005 58.1452C232.953 56.9605 230.33 57.6635 229.145 59.7154C227.96 61.7673 228.663 64.391 230.715 65.5757C232.767 66.7603 235.391 66.0573 236.575 64.0054Z" fill="#95E257"/>
    </g>
    <defs>
        <clipPath id="clip0_14813_274432">
            <rect width="587" height="88" fill="white"/>
        </clipPath>
    </defs>
</svg>

<svg xmlns="http://www.w3.org/2000/svg" width="587" height="88" fill="none"><g clip-path="url(#a)"><path fill="#FB9175" d="m288.611 41.788 4.527-7.244L281.064 27l-4.526 7.244 12.073 7.544Z" opacity=".89"/><path fill="#FCC63A" d="m560.955 78 9.695-19.027-5.074-2.586-9.695 19.028L560.955 78Z" opacity=".6"/><path fill="#FCC63A" fill-opacity=".8" d="M7.99 5.03A7.118 7.118 0 1 0 22.09 3.05 7.118 7.118 0 0 0 7.99 5.03Z" opacity=".97"/><path fill="#95E257" d="m84.168 44.558 8.17 2.498L96.5 33.44l-8.17-2.497-4.162 13.614Z" opacity=".71"/><path fill="#BFCCFB" d="M527.647 15.28a5.695 5.695 0 1 0-2.562 11.099 5.695 5.695 0 0 0 2.562-11.098ZM113.111 10.28a5.694 5.694 0 1 0-2.563 11.098 5.694 5.694 0 0 0 2.563-11.097Z" opacity=".89"/><path fill="#95E257" d="m395.732 56.992 21.238 2.232.595-5.663-21.237-2.233-.596 5.664Z" opacity=".83"/><path fill="#FB9175" d="m174.438 55.556-7.472-8.595-3.708 10.768 11.18-2.173Z" opacity=".86"/><path fill="#FCC63A" fill-opacity=".5" d="m476.257 67.13.229-13.13L465 60.367l11.257 6.764Z" opacity=".92"/><path fill="#BFCCFB" d="m228.327 26.255 11.377 1.196L235.051 17l-6.724 9.255Z" opacity=".9"/><path fill="#FCC63A" d="m149.706 34.797 1.496-21.398-5.706-.4L144 34.399l5.706.399Z" opacity=".57"/><path fill="#FB9175" d="M410.838 12.09a7.15 7.15 0 1 0 4.18 13.677 7.15 7.15 0 0 0-4.18-13.676Z" opacity=".9"/><path fill="#FCC63A" d="M50.458 38.164 43.606 33 35 44.42l6.852 5.164 8.606-11.42ZM458.815-.916l-8.063-2.932-4.886 13.44 8.063 2.931 4.886-13.439Z" opacity=".79"/><path fill="#FB9175" fill-opacity=".7" d="m80.805 74.896-8.217-19.814-5.284 2.191 8.217 19.814 5.284-2.191Z" opacity=".69"/><path fill="#95E257" d="M544.329 51.015 537.286 42 533 52.607l11.329-1.592ZM194.829 12.439 194.984 1 185 6.585l9.829 5.854Z" opacity=".89"/><path fill="#BFCCFB" d="M327.195 7.004 318.674 6 317 20.202l8.521 1.004 1.674-14.202Z" opacity=".91"/><path fill="#95E257" d="M352.08 16.083a7.15 7.15 0 1 0 7.365 12.258 7.15 7.15 0 0 0 2.446-9.812 7.15 7.15 0 0 0-9.811-2.446Z" opacity=".93"/><path fill="#BFCCFB" d="M591.274 28.903 578.068 12l-4.507 3.522 13.206 16.902 4.507-3.521Z" opacity=".95"/><path fill="#95E257" fill-opacity=".4" d="M333.857 53.629 327.382 48 318 58.792l6.475 5.63 9.382-10.793Z" opacity=".87"/><path fill="#FB9175" d="m478 23.362 12.608 17.354 4.627-3.362L482.627 20 478 23.362Z" opacity=".7"/><path fill="#95E257" d="M236.575 64.005a4.29 4.29 0 1 0-7.429-4.29 4.29 4.29 0 0 0 7.429 4.29Z" opacity=".7"/></g><defs><clipPath id="a"><path fill="#fff" d="M0 0h587v88H0z"/></clipPath></defs></svg>
